findly-builder/apps/searchassist/src/assets/icons/content/latest-content-icons/failed-check-o.svg

<svg width="30" height="30" viewBox="0 0 30 30" fill="none" xmlns="http://www.w3.org/2000/svg">
<circle cx="15" cy="15" r="14.5" fill="#FCEAED" stroke="#EF9AA3"/>
<path d="M13.237 7L13.5234 17.6667H16.4661L16.763 7H13.237ZM15.0052 19.6667C13.9099 19.6667 13.2266 20.3025 13.2266 21.3385C13.2266 22.3652 13.9105 23 15.0052 23C16.0999 23 16.7747 22.3652 16.7747 21.3385C16.7747 20.3025 16.1005 19.6667 15.0052 19.6667Z" fill="#DD3646"/>
</svg>

<svg width="30" height="30" fill="none" xmlns="http://www.w3.org/2000/svg"><circle cx="15" cy="15" r="14.5" fill="#FCEAED" stroke="#EF9AA3"/><path d="m13.237 7 .286 10.667h2.943L16.763 7h-3.526Zm1.768 12.667c-1.095 0-1.778.635-1.778 1.671 0 1.027.684 1.662 1.778 1.662 1.095 0 1.77-.635 1.77-1.662 0-1.036-.674-1.671-1.77-1.671Z" fill="#DD3646"/></svg>
